src/topics/icons/aws-s3.svg

<svg height="310" preserveAspectRatio="xMidYMid" viewBox="0 0 256 310" width="256" xmlns="http://www.w3.org/2000/svg"><path d="m20.624 53.686-20.624 10.314v181.02l20.624 10.254.124-.149v-201.297z" fill="#8c3123"/><path d="m131 229-110.376 26.274v-201.588l110.376 25.701z" fill="#e05243"/><path d="m81.178 187.866 46.818 5.96.294-.678.263-76.77-.557-.6-46.818 5.874z" fill="#8c3123"/><path d="m127.996 229.295 107.371 26.035.169-.269-.003-201.195-.17-.18-107.367 25.996z" fill="#8c3123"/><path d="m174.827 187.866-46.831 5.96v-78.048l46.831 5.874z" fill="#e05243"/><path d="m174.827 89.631-46.831 8.535-46.818-8.535 46.759-12.256z" fill="#5e1f18"/><path d="m174.827 219.801-46.831-8.591-46.818 8.591 46.761 13.053z" fill="#f2b0a9"/><path d="m81.178 89.631 46.818-11.586.379-.117v-77.615l-.379-.313-46.818 23.413z" fill="#8c3123"/><path d="m174.827 89.631-46.831-11.586v-78.045l46.831 23.413z" fill="#e05243"/><path d="m127.996 309.428-46.823-23.405v-66.217l46.823 11.582.689.783-.187 75.906z" fill="#8c3123"/><g fill="#e05243"><path d="m127.996 309.428 46.827-23.405v-66.217l-46.827 11.582z"/><path d="m235.367 53.686 20.633 10.314v181.02l-20.633 10.31z"/></g></svg>

<?xml version="1.0" encoding="UTF-8" standalone="no"?>
<svg width="256px" height="310px" viewBox="0 0 256 310" version="1.1" xmlns="http://www.w3.org/2000/svg" xmlns:xlink="http://www.w3.org/1999/xlink" preserveAspectRatio="xMidYMid">
	<g>
		<path d="M20.624,53.686 L0,64 L0,245.02 L20.624,255.274 L20.748,255.125 L20.748,53.828 L20.624,53.686" fill="#8C3123"></path>
		<path d="M131,229 L20.624,255.274 L20.624,53.686 L131,79.387 L131,229" fill="#E05243"></path>
		<path d="M81.178,187.866 L127.996,193.826 L128.29,193.148 L128.553,116.378 L127.996,115.778 L81.178,121.652 L81.178,187.866" fill="#8C3123"></path>
		<path d="M127.996,229.295 L235.367,255.33 L235.536,255.061 L235.533,53.866 L235.363,53.686 L127.996,79.682 L127.996,229.295" fill="#8C3123"></path>
		<path d="M174.827,187.866 L127.996,193.826 L127.996,115.778 L174.827,121.652 L174.827,187.866" fill="#E05243"></path>
		<path d="M174.827,89.631 L127.996,98.166 L81.178,89.631 L127.937,77.375 L174.827,89.631" fill="#5E1F18"></path>
		<path d="M174.827,219.801 L127.996,211.21 L81.178,219.801 L127.939,232.854 L174.827,219.801" fill="#F2B0A9"></path>
		<path d="M81.178,89.631 L127.996,78.045 L128.375,77.928 L128.375,0.313 L127.996,0 L81.178,23.413 L81.178,89.631" fill="#8C3123"></path>
		<path d="M174.827,89.631 L127.996,78.045 L127.996,0 L174.827,23.413 L174.827,89.631" fill="#E05243"></path>
		<path d="M127.996,309.428 L81.173,286.023 L81.173,219.806 L127.996,231.388 L128.685,232.171 L128.498,308.077 L127.996,309.428" fill="#8C3123"></path>
		<path d="M127.996,309.428 L174.823,286.023 L174.823,219.806 L127.996,231.388 L127.996,309.428" fill="#E05243"></path>
		<path d="M235.367,53.686 L256,64 L256,245.02 L235.367,255.33 L235.367,53.686" fill="#E05243"></path>
	</g>
</svg>
